X:1
T:Vater unser
T:Johann Stahel
T:Source: DDT 34---Leipzig---Breitkopf & Härtel---J.Wolf---1908. First print : Newe Deudsche Geistliche Gesenge---Wittemberg---G.Rhau---1544. Editor : André Vierendeels (10/08/17).
T:Notes : Original clefs : C1, C4, C4, F4 Original note values have been halved Editorial accidentals above the staff
T:Vater unser
T:©
T:©
T:©
C:Johann Stahel
Z:©
%%score [ 1 [ 2 3 ] 4 ]
L:1/8
Q:1/4=120
M:2/2
K:F
V:1 treble nm="Alto" snm="A"
V:2 treble-8 nm="Tenor 1" snm="T 1"
V:3 treble-8 nm="Tenor 2" snm="T 2"
V:4 bass nm="Bass" snm="B"
V:1
 z8 | z8 | F8 | F4 G4 | A4 F4 | B4 B4 | A8 | z2 F2 G4 | A3 G F2 E2 | F4 G4 | z2 F2 A2 B2 | %11
w: ||Va-|ter un-|ser im|Him- mel-|reich,|im Him-||mel- reich,|der du uns|
 c2 A2 B2 G2 | F4 z4 | F4 G2 B2 | A4 G4 | z2 c3 B A2 | G2 F4 E2 | F8- | F4 z2 F2 | F2 F2 E2 C2 | %20
w: al- le heis- sest|gleich,|der du uns|al- le|heis- * *|* * sest|gleich,|_ brü-|der sein und dich|
 D2 G4 FE |"^b" FEDC D4 |"^-natural" E4 z2 F2 | E2 D3 C C2- | C2 B,A, B,2 B,2 | C4 z2 C2 | F4 G4 | %27
w: ru- * * *|* * * * fen|an, und|dich ru- * *|* * * * fen|an, und|wilt das|
 A4 G4- | G2 F2 F4- | F2 ED E4 | F4 z2 c2 | c4 A4 | B4 c4 | A8 | G4 A4- | A8 | z4 z2 G2 | %37
w: Be- ten|_ von uns|_ _ _ _|han. Gieb,|dasz nicht|bet al-|lein|der Mund,|_|al-|
 A2 F2 B2 B2 | A8 | z8 | z8 | z8 | z4 B4 | A4 G4 |"^b" F4 E4 |"^-natural" F2 CD EF G2 | %46
w: lein _ _ der|Mund,||||hilf,|dasz es|geh von|Her- * * * * *|
 F2 A3 G F2- | F2 ED E2 E2 | F8 |] %49
w: |* * * * zen|Grund.|
V:2
 F8 | F4 G4 | A4 F4 | B4 B4 | A3 B c2 d2- | dcBA B4 | c3 B AG F2 | F2 f4 e2 | f4 z2 c2- | %9
w: Va-|ter un-|ser im|Him- mel-|reich, _ _ Va-|* * * * ter|un- * * * ser|im Him- mel-|reich, im|
 c2 BA B4 | A3 B c2 d2 | c4 z2 G2 | A2 B2 c2 A2 | B2 A2 G4 | F2 f2 d4 | e4 f2 c2 | d4 c4 | A8 | %18
w: _ _ _ _|Him- * * mel-|reich, der|du uns al- le|heis- * sest|gleich, der du|uns al- le|heis- sest|gleich,|
 z2 B2 B2 B2 | A2 F2 G2 A2 | BAGF G4 | z2 F2 F2 F2 | c4 A3 B | c2 B4 A2 | G4 z2 G2 | EDEF G2 A2- | %26
w: brü- der sein|und dich ru- fen|an, _ _ _ _|brü- der sein|und dich _|_ ru- fen|an, und|wilt _ _ _ das Be-|
 AG F4 E2 | F4 z2 c2 | d6 d2 | c2 B2 c2 c2 | A8 | z2 f2 f4 | d4 e4 | f2 d3 c A2 | B2 B2 A4- | %35
w: * ten von uns|han, und|wilt das|Be- ten von uns|han.|Gieb, dasz|nicht bet|al- lein _ _|_ der Mund,|
 A4 z2 c2 | d2 f2 e2 c2- | c2 f4 e2 | f6 ed | c4 z2 B2 | A2 G2 F4 | G4 A2 G2- | GF F4 E2 | %43
w: _ gieb,|dasz nicht bet al-|* lein der|Mund, _ _|_ hilf,|dasz es geh|von Her- *|* * * zen|
 F4 z2 G2 | ABcA B2 c2 | BF A2 G4 | A4 FGAB | c2 d2 c2 c2 | c8 |] %49
w: Grund, hilf,|dasz _ _ _ _ es|geh _ _ von|Her- * * * *|* * * zen|Grund.|
V:3
 z8 | z8 | z8 | z8 | F8 | F4 G4 | A4 F4 | B4 B4 | A8- | A4 z4 | z8 | z8 | z8 | z4 z2 G2 | A4 B4 | %15
w: ||||Va-|ter un-|ser im|Him- mel-|reich,|_||||der|du uns|
 c4 A4 | B4 G4 | F8- | F8 | z8 | z4 B4 | B4 B4 | A4 F4 | G4 F2 E2 | D8 | z8 | z4 C4 | F4 G4 | %28
w: al- le|heis- sest|gleich,|_||brü-|der sein|und dich|ru- * fen|an,||und|wilt das|
 A4 B4 | G4 G4 | F8- | F8 | z8 | z8 | z4 c4 | c4 A4 | B4 c4 | A4 G4 | A8 | z8 | z8 | z8 | z8 | %43
w: Be- ten|von uns|han.|_|||Gieb,|dasz nicht|bet al-|lein der|Mund,|||||
 z4 B4 | A4 G4 | F4 C4 | F4 A4 | G8 | F8 |] %49
w: hilf,|dasz es|geh von|Her- *|zen|Grund.|
V:4
 F,6 E,2 | D,4 C,4 | z2 F,,2 B,,4- | B,,2 A,,2 G,,4 | F,,3 G,, A,,2 B,,2- | B,,A,, B,,2 G,,4 | %6
w: Va- ter|un- ser|im Him-|* * mel-|reich, _ _ Va-|* ter un- ser|
 F,,2 F,3 E,D,C, | B,,2 A,,2 G,,4 | F,,3 G,, A,,B,, C,2 | F,,2 F,4 E,2 | F,4 z2 D,2 | %11
w: im Him- * * *|||* * mel-|reich, der|
 E,2 F,2 G,2 E,2 | F,2 D,2 C,4 |"^b" z2 D,2 E,4 | F,4 G,4 |"^b" C,4 F,4 | B,,4 C,4 | z8 | %18
w: du uns al- le|heis- sest gleich,|der du|uns al-|le heis-|sest gleich,||
 z2 B,,3 C,D,E, | F,3 E,/D,/ C,4 | z2 _E,2 E,2 E,2 | D,4 B,,4 | C,4 D,4 | C,2 G,,2 B,,2 C,2 | %24
w: gleich, _ _ _|_ _ _ _|brü- der sein|und dich|ru- *|* * * fen|
 G,,4 z2 G,,2 | C,3 D, E,2 F,2 | F,G, A,2 G,4 | z2 F,2 F,2 E,2 | D,4 B,,4 | C,2 D,2 C,4 | F,,8- | %31
w: an, und|wilt _ _ das|Be- * * ten,|und wilt das|be- ten|von _ uns|han.|
 F,,8 | z8 | z8 | z8 | z2 F,2 F,4 | D,4 E,4 | F,2 D,2 G,2 G,2 | F,8 | z2 F,2 E,2 D,2 | C,4 z2 D,2 | %41
w: _||||Gieb, dasz|nicht al-|al- * lein der|Mind,|hilf, dasz es|geh von|
 C,2 B,,2 A,,2 C,2 | B,,A,,G,,F,, G,,4 | F,,2 F,4 E,2 | F,4 z2 C,2 | D,2 F,2 E,4 | D,2 F,3 E, F,2 | %47
w: her- * * *||* * zen|Grund, hilf,|dasz es geh|von Her- * *|
 C,2 B,,2 C,4 | F,,8 |] %49
w: * * zen|Grund.|

